src/symbolic/categories/emoji-objects-symbolic.svg

<?xml version="1.0" encoding="UTF-8" standalone="no"?>
<svg
   xmlns:dc="http://purl.org/dc/elements/1.1/"
   xmlns:cc="http://creativecommons.org/ns#"
   xmlns:rdf="http://www.w3.org/1999/02/22-rdf-syntax-ns#"
   xmlns:svg="http://www.w3.org/2000/svg"
   xmlns="http://www.w3.org/2000/svg"
   id="svg6"
   version="1.1"
   width="16"
   height="16">
  <metadata
     id="metadata12">
    <rdf:RDF>
      <cc:Work
         rdf:about="">
        <dc:format>image/svg+xml</dc:format>
        <dc:type
           rdf:resource="http://purl.org/dc/dcmitype/StillImage" />
        <dc:title></dc:title>
      </cc:Work>
    </rdf:RDF>
  </metadata>
  <defs
     id="defs10" />
  <path
     id="path840-3"
     d="M 8.5097656 0 A 5.5 5.041667 0 0 0 4.9648438 1.1796875 A 5.5 5.041667 0 0 0 3.7363281 7.5625 C 4.5032861 8.6120783 6 9.6426619 6 11 L 6.0039062 11 C 6.0039063 11 6.002342 12.08229 6.0019531 13 L 6.0019531 14 C 6.0017383 14.379583 6.0021593 14.787343 6.0019531 14.947266 C 5.9631981 15.479982 6.4154409 15.983824 6.9511719 15.996094 C 7.9507529 15.999094 8.9496037 15.997186 9.9492188 15.998047 C 10.481975 16.036799 10.985777 15.586474 10.998047 15.050781 C 11.001047 14.384414 10.99914 11.666401 11 11 C 11 9.6426619 12.496714 8.6120783 13.263672 7.5625 A 5.5 5.041667 0 0 0 12.035156 1.1796875 A 5.5 5.041667 0 0 0 8.5097656 0 z M 8.5 0.91601562 A 4.5 4.1250002 0 0 1 13 5.0410156 A 4.5 4.1250002 0 0 1 12.337891 7.1777344 C 11.826985 7.9494035 9.9487589 9.4352605 10 11 L 7 11 C 7.051804 9.4180721 5.1222608 7.9105643 4.6367188 7.1464844 A 4.5 4.1250002 0 0 1 4 5.0410156 A 4.5 4.1250002 0 0 1 8.5 0.91601562 z M 6.9941406 5.5019531 C 6.8661794 5.5019532 6.738256 5.5508066 6.640625 5.6484375 C 6.445363 5.8436994 6.445363 6.1602067 6.640625 6.3554688 C 6.823418 6.5382619 7.724485 7.1603824 8 7.0800781 L 8 10 L 9 10 L 9 7.0820312 C 9.2876278 7.143736 10.167174 6.5359509 10.347656 6.3554688 C 10.542918 6.1602067 10.542918 5.8436994 10.347656 5.6484375 C 10.152394 5.4531757 9.835886 5.4531754 9.640625 5.6484375 C 9.4593449 5.8297178 8.8460274 6.7164619 8.9140625 7 L 8.0742188 7 C 8.1428217 6.7168299 7.5290072 5.8297887 7.3476562 5.6484375 C 7.2500253 5.5508064 7.1221019 5.5019531 6.9941406 5.5019531 z M 7 12 L 10 12 L 10 15 L 7 15 L 7 14 L 8.5019531 14 L 8.5019531 13 L 7 13 L 7 12 z "
     style="font-variation-settings:normal;opacity:1;vector-effect:none;fill:#666666;fill-opacity:1;stroke:none;stroke-width:1;stroke-linecap:butt;stroke-linejoin:miter;stroke-miterlimit:4;stroke-dasharray:none;stroke-dashoffset:0;stroke-opacity:1" />
</svg>

<svg xmlns="http://www.w3.org/2000/svg" width="16" height="16"><path d="M8.51 0a5.5 5.042 0 0 0-3.545 1.18 5.5 5.042 0 0 0-1.229 6.383C4.503 8.613 6 9.643 6 11h.004l-.002 2v1.947c-.039.533.413 1.037.95 1.05.999.002 1.998 0 2.997.001.533.039 1.037-.412 1.049-.947.003-.667.001-3.385.002-4.051 0-1.357 1.497-2.388 2.264-3.438a5.5 5.042 0 0 0-1.229-6.382A5.5 5.042 0 0 0 8.51 0zM8.5.916A4.5 4.125 0 0 1 13 5.041a4.5 4.125 0 0 1-.662 2.137C11.827 7.949 9.948 9.435 10 11H7c.052-1.582-1.878-3.09-2.363-3.854A4.5 4.125 0 0 1 4 5.041 4.5 4.125 0 0 1 8.5.916zM6.994 5.502a.498.498 0 0 0-.353.853c.182.183 1.083.805 1.359.725V10h1V7.082c.288.062 1.167-.546 1.348-.727a.5.5 0 1 0-.707-.707C9.459 5.83 8.846 6.716 8.914 7h-.84c.069-.283-.545-1.17-.726-1.352a.498.498 0 0 0-.354-.146zM7 12h3v3H7v-1h1.502v-1H7v-1z" style="font-variation-settings:normal" fill="#5d656b"/></svg>
